X:21083 
T:HONEYMOON REEL, The 
B:DMI.0791
Z:Nordberg/Black
R:reel
%Q:1/4=180
M:C|
L:1/8
K:G
dc|BGAF DGG2|Bd ef gedc|BGG2 DGG2|BedB A2dc|
BGAF DGG2|Bdef g3a|bgaf gfed|egdB A2||
Bd|e2ef edBA|Bd ef gedc|BGG2 DGG2|BedB A2Bd|
edef edBA|Bd ef g3a|bgaf gfed|egdB A2|]

%%%

